miniprogram/assets/figma/quick-orders.svg

<svg width="24" height="24" viewBox="0 0 24 24" fill="none" xmlns="http://www.w3.org/2000/svg">
<path d="M15 12.95H8C7.59 12.95 7.25 12.61 7.25 12.2C7.25 11.79 7.59 11.45 8 11.45H15C15.41 11.45 15.75 11.79 15.75 12.2C15.75 12.61 15.41 12.95 15 12.95Z" fill="#292D32"/>
<path d="M12.38 16.95H8C7.59 16.95 7.25 16.61 7.25 16.2C7.25 15.79 7.59 15.45 8 15.45H12.38C12.79 15.45 13.13 15.79 13.13 16.2C13.13 16.61 12.79 16.95 12.38 16.95Z" fill="#292D32"/>
<path d="M14 6.75H10C9.04 6.75 7.25 6.75 7.25 4C7.25 1.25 9.04 1.25 10 1.25H14C14.96 1.25 16.75 1.25 16.75 4C16.75 4.96 16.75 6.75 14 6.75ZM10 2.75C9.01 2.75 8.75 2.75 8.75 4C8.75 5.25 9.01 5.25 10 5.25H14C15.25 5.25 15.25 4.99 15.25 4C15.25 2.75 14.99 2.75 14 2.75H10Z" fill="#292D32"/>
<path d="M15 22.7499H9C3.38 22.7499 2.25 20.1699 2.25 15.9999V9.99993C2.25 5.43993 3.9 3.48993 7.96 3.27993C8.36 3.25993 8.73 3.56993 8.75 3.98993C8.77 4.40993 8.45 4.74993 8.04 4.76993C5.2 4.92993 3.75 5.77993 3.75 9.99993V15.9999C3.75 19.6999 4.48 21.2499 9 21.2499H15C19.52 21.2499 20.25 19.6999 20.25 15.9999V9.99993C20.25 5.77993 18.8 4.92993 15.96 4.76993C15.55 4.74993 15.23 4.38993 15.25 3.97993C15.27 3.56993 15.63 3.24993 16.04 3.26993C20.1 3.48993 21.75 5.43993 21.75 9.98993V15.9899C21.75 20.1699 20.62 22.7499 15 22.7499Z" fill="#292D32"/>
</svg>

<svg xmlns="http://www.w3.org/2000/svg" width="24" height="24" fill="none" viewBox="0 0 24 24"><path fill="#292d32" d="M15 12.95H8c-.41 0-.75-.34-.75-.75s.34-.75.75-.75h7c.41 0 .75.34.75.75s-.34.75-.75.75m-2.62 4H8c-.41 0-.75-.34-.75-.75s.34-.75.75-.75h4.38c.41 0 .75.34.75.75s-.34.75-.75.75M14 6.75h-4c-.96 0-2.75 0-2.75-2.75S9.04 1.25 10 1.25h4c.96 0 2.75 0 2.75 2.75 0 .96 0 2.75-2.75 2.75m-4-4c-.99 0-1.25 0-1.25 1.25S9.01 5.25 10 5.25h4c1.25 0 1.25-.26 1.25-1.25 0-1.25-.26-1.25-1.25-1.25z"/><path fill="#292d32" d="M15 22.75H9c-5.62 0-6.75-2.58-6.75-6.75v-6c0-4.56 1.65-6.51 5.71-6.72.4-.02.77.29.79.71s-.3.76-.71.78C5.2 4.93 3.75 5.78 3.75 10v6c0 3.7.73 5.25 5.25 5.25h6c4.52 0 5.25-1.55 5.25-5.25v-6c0-4.22-1.45-5.07-4.29-5.23a.757.757 0 0 1-.71-.79c.02-.41.38-.73.79-.71 4.06.22 5.71 2.17 5.71 6.72v6c0 4.18-1.13 6.76-6.75 6.76"/></svg>
